dist/svg/static/adblue-alert-large.svg

<svg xmlns="http://www.w3.org/2000/svg" width="48" height="48" viewBox="0 0 48 48"><g fill="none" stroke="currentColor"><g stroke-miterlimit="10"><path d="M26.5 29.5l-2.2 1.44c-1 .6-2.2.26-2.8-.74l-1-1.7L16 31l-4.5-7.5L16 21l-2.5-4L35.3 3.5c.9-.6 2.1-.3 2.7.6L46.5 17l-7 4.5M11.5 28.5s-9 3.5-9 18h5s-.5-10.5 4-18z"/><path d="M16 21s3.5-1.882 3.5-3.582c0 0 1.152 3.082 3 3.082s3-1.051 3-3.051c0 0 1.022 3.051 3 3.051s3-1 3-3"/></g><path stroke-linejoin="round" d="M35.5 25v6M35.5 33v2"/><path stroke-miterlimit="10" d="M45.5 37.5h-20l10-18z"/></g></svg>

<?xml version="1.0" encoding="UTF-8" standalone="no"?>
<svg width="48px" height="48px" viewBox="0 0 48 48" version="1.1" xmlns="http://www.w3.org/2000/svg" xmlns:xlink="http://www.w3.org/1999/xlink">
    <!-- Generator: sketchtool 46.2 (44496) - http://www.bohemiancoding.com/sketch -->
    <title>adblue-alert-large</title>
    <desc>Created with sketchtool.</desc>
    <defs></defs>
    <g id="icons-published" stroke="none" stroke-width="1" fill="none" fill-rule="evenodd">
        <g id="briefing" transform="translate(0.000000, -26.000000)"></g>
        <g id="adblue-alert-large" stroke="#000000">
            <path d="M26.5,29.5 L24.3,30.9 C23.3,31.5 22.1,31.2 21.5,30.2 L20.5,28.5 L16,31 L11.5,23.5 L16,21 L13.5,17 L35.3,3.5 C36.2,2.9 37.4,3.2 38,4.1 L46.5,17 L39.5,21.5" id="Shape"></path>
            <path d="M11.5,28.5 C11.5,28.5 2.5,32 2.5,46.5 L7.5,46.5 C7.5,46.5 7,36 11.5,28.5 Z" id="Path"></path>
            <path d="M16,21 C16,21 19.5,19.1 19.5,17.4 C19.5,17.4 20.7,20.5 22.5,20.5 C24.3,20.5 25.5,19.4 25.5,17.4 C25.5,17.4 26.5,20.5 28.5,20.5 C30.5,20.5 31.5,19.5 31.5,17.5" id="Shape" stroke-linejoin="bevel"></path>
            <path d="M35.5,25 L35.5,31 M35.5,33 L35.5,35" id="Shape" stroke-linejoin="round"></path>
            <polygon id="Shape" points="45.5 37.5 25.5 37.5 35.5 19.5"></polygon>
        </g>
    </g>
</svg>
